X: 11601
T: Egg And The Fiddle, The
R: reel
M: 4/4
K: Dmixolydian
|:AFFF EFDE|FFAF EFDG|BGFG DGFG|BGcA BG(3EFG|
AFFF EFDE|FFAF EFDG|BGGG Bd2d-|dBAF EFD2:|
|:AFFF dFFF|FAdF Adcd|BGGG dGGG|GBdG Bdcd|
AFFF dFFF|FAdF Adcd|GBdG FAdB|AFEF D4:|

